icons/layout-flex-align-top-1.svg

<svg fill="none" viewBox="0 0 24 24"><path stroke="currentColor" stroke-linecap="round" stroke-linejoin="round" stroke-width="2" d="M16.8 7.2h-9.6m9.6 3.6h-9.6m-4.8-4.8v12a3.6 3.6 0 0 0 3.6 3.6h12a3.6 3.6 0 0 0 3.6-3.6v-12a3.6 3.6 0 0 0-3.6-3.6h-12a3.6 3.6 0 0 0-3.6 3.6Z"/></svg>

<svg fill="none" viewBox="0 0 24 24"><path stroke="currentColor" stroke-linecap="round" stroke-linejoin="round" stroke-width="2" d="M16.8 7.2H7.2m9.6 3.6H7.2M2.4 6v12A3.6 3.6 0 0 0 6 21.6h12a3.6 3.6 0 0 0 3.6-3.6V6A3.6 3.6 0 0 0 18 2.4H6A3.6 3.6 0 0 0 2.4 6"/></svg>
